frontend/src/assets/icons/default-user-profile.svg

<svg width="160" height="160" viewBox="0 0 600 600" fill="none" xmlns="http://www.w3.org/2000/svg"><mask id="a" style="mask-type:luminance" maskUnits="userSpaceOnUse" x="0" y="0" width="600" height="498"><path d="M600 0H0v498h600V0z" fill="#fff"/></mask><g mask="url(#a)"><path d="M300 580c154.64 0 280-125.36 280-280S454.64 20 300 20 20 145.36 20 300s125.36 280 280 280z" fill="#000"/></g><path d="M300 345c63.513 0 115-51.487 115-115s-51.487-115-115-115-115 51.487-115 115 51.487 115 115 115z" fill="#fff"/><mask id="b" style="mask-type:luminance" maskUnits="userSpaceOnUse" x="20" y="20" width="560" height="560"><path d="M300 580c154.64 0 280-125.36 280-280S454.64 20 300 20 20 145.36 20 300s125.36 280 280 280z" fill="#fff"/></mask><g mask="url(#b)"><path d="M300 755c113.218 0 205-91.782 205-205s-91.782-205-205-205S95 436.782 95 550s91.782 205 205 205z" fill="#fff"/></g></svg>

<svg width="160" height="160" viewBox="0 0 600 600" fill="none" xmlns="http://www.w3.org/2000/svg">
<mask id="mask0_1207_2587" style="mask-type:luminance" maskUnits="userSpaceOnUse" x="0" y="0" width="600" height="498">
<path d="M600 0H0V498H600V0Z" fill="white"/>
</mask>
<g mask="url(#mask0_1207_2587)">
<path d="M300 580C454.64 580 580 454.64 580 300C580 145.36 454.64 20 300 20C145.36 20 20 145.36 20 300C20 454.64 145.36 580 300 580Z" fill="black"/>
</g>
<path d="M300 345C363.513 345 415 293.513 415 230C415 166.487 363.513 115 300 115C236.487 115 185 166.487 185 230C185 293.513 236.487 345 300 345Z" fill="white"/>
<mask id="mask1_1207_2587" style="mask-type:luminance" maskUnits="userSpaceOnUse" x="20" y="20" width="560" height="560">
<path d="M300 580C454.64 580 580 454.64 580 300C580 145.36 454.64 20 300 20C145.36 20 20 145.36 20 300C20 454.64 145.36 580 300 580Z" fill="white"/>
</mask>
<g mask="url(#mask1_1207_2587)">
<path d="M300 755C413.218 755 505 663.218 505 550C505 436.782 413.218 345 300 345C186.782 345 95 436.782 95 550C95 663.218 186.782 755 300 755Z" fill="white"/>
</g>
</svg>
